!!!COM: Jules Massenet
!!!CNT: Francais
!!!TXO: Francais
!!!OTL: Madrigal
!!!LYR: Armand Silvestre
!!!ENC: Jacob Pegg
!!!YOR: Romantic French Song 1830-1870 - David Tunley, ed.,
!!!YOR: New York: Garland Publishing, Inc., 1995, Vol. 6
!!!ODT: 1869/
!!NB: Vocal melody and text only encoded.
!!NB: First instance of melodic material only encoded.
**kern	**silbe
*clef G2	*
*k[f#c#g#]	*
*M2/4	*
!!created: 2/5/04 16:14
!!proofed and posted: 2/5/04 17:44
!!edit time: 26 min.
=11	=11
8r	.
{8f#	{Le
8g#	soir
8g#	fris-
=12	=12
8a	-sonne
8a	au
8b	coeur
8b	des
=13	=13
(8cc#	ro-
bq	|
8g#)	|
4g#}	-ses;}
=14	=14
8r	.
{8f#	{Ton
(f#q	|
8en)	rire
8en	est
=15	=15
8e	com-
8b	-me
8a	ce
8a	fris-
=16	=16
4f#}	-son;}
8r	.
{8a	{Il
=17	=17
8g#	pas-
8g#	-se
8cc#	sur
8cc#	les
=18	=18
8f#	fronts
8f#	mo-
(f#q	|
4e#	-ro-
=19	=19
8f#)}	-ses,}
{8f#	{A-
8f#	-vec
8g#	le
=20	=20
8e#	bruit
8a	d'u-
8f#	-ne
(24g#	chan-
24a	|
24b)	|
=21	=21
[2cc#	-son?
=22	=22
2cc#]}	|}
=23	=23
8r	.
{(8cc#	{Oh!
8cc#	le
8cc#)	beau
=24	=24
(24cc#	ri-
24dd#	|
24ee	|
16dd#	|
16cc#)	|
[4a	-re,
=25	=25
8a]}	|}
{8a	{Et
8b	les
8b	doux
=26	=26
2g#}	yeux!}
=27	=27
8r	.
{(8a	{Qui
8a	me
8a)	font
=28	=28
(24a	tris-
24b	|
24cc#	|
16b	|
16a)	|
4f#}	-te}
=29	=29
8r	.
{(16g#	{tris-
16f#)	|
(e#q	-te
f#q	|
8.e#)	ou
16f#	jo-
=30	=30
4f#}	-yeux!}
4r	.
=53	=53
8r	.
{(8cc#	{Oh!
8cc#	le
8cc#)	beau
=54	=54
[2cc#	ri-
=55	=55
8cc#]}	-re,}
{8ff#	{Oh!
8een	le
8b	beau
=56	=56
8cc#	rire
8a	et
8f#	les
8g#	doux
=57	=57
8cc#}	yeux!}
{8cc#	{Oh!
8cc#	le
8cc#	beau
=58	=58
[2cc#	ri-
=59	=59
8cc#]}	-re,}
{8ff#	{Oh!
8ee#	le
8dd#	beau
=60	=60
(ee#q	ri-
8dd#	|
8cc#)}	-re,}
8r	.
{8f#	{Et
=61	=61
*M3/4	*
(4f#	les
4cc#)	|
4b	doux
=62	=62
*M2/4	*
8a#}	yeux,}
8r	.
4r	.
=63	=63
{(4an	{O^
8.cc#;)	les
16e#	doux
=64	=64
4f#}	yeux!}
4r	.
*-	*-
